X: 75
T:Victor Bowden's Hornpipe. GHW..075
M:2/4
L:1/16
Q:80
S:George H.Watson,MS,Swanton Abbott,Norfolk,1850-1880
R:Hornpipe
O:England
A:Norfolk
N:Untitled in MS, named after Victor Bowden of Kemsing,Kent who brought
N:the MS to light, and kindly donated it to George Frampton.CGP
Z:vmp.Taz Tarry
K:D
FG|AFDF AFAd|BdAd fedc|dfAf gfed|(3edc) (3dcB) A2(FG)|!
AFDF AFAd|BdAd fedc|dfAf gfed|d2d2d2:|!
|:(de)|(fd)d2 BdAd|FAdA (fd)d2|eAfA gAfA|(3edc) (3dcB) A2(de)|!
(fd)d2 BdAd|FAdA (fd)d2|eAfA gAfA|eABc d2:|
W:Untitled in MS
